assets/images/icon3.svg

<svg fill="none" height="36" viewBox="0 0 27 36" width="27" xmlns="http://www.w3.org/2000/svg"><g fill="#000"><path d="m26.7557 34.9835-2.2521-2.6452v2.6293h-.2656v-2.8683c0-.1346-.0336-.2479-.1009-.3399-.0638-.0921-.1895-.1381-.3771-.1381h-.0266v-.1594h.3718c.2019 0 .3647.0266.4887.0797.1275.0531.2319.1328.3134.239l1.8271 2.1246v-2.4433h.2656v3.5216z"/><path d="m21.8065 35.0736c-.3505 0-.6586-.0815-.9242-.2444-.262-.1664-.4656-.3895-.6108-.6692-.1452-.2798-.2178-.5949-.2178-.9455 0-.3505.0726-.6657.2178-.9454.1452-.2798.3488-.5011.6108-.664.2656-.1664.5737-.2496.9242-.2496.3541 0 .6604.0832.9189.2496.2621.1629.4657.3842.6109.664.1452.2797.2177.5949.2177.9454 0 .3506-.0725.6657-.2177.9455-.1452.2797-.3488.5028-.6109.6692-.2585.1629-.5648.2444-.9189.2444zm0-.239c.3223 0 .5719-.1399.749-.4197.177-.2832.2655-.6834.2655-1.2004s-.0885-.9153-.2655-1.1951c-.1771-.2833-.4267-.4249-.749-.4249-.3222 0-.5718.1416-.7489.4249-.1735.2798-.2603.6781-.2603 1.1951s.0868.9172.2603 1.2004c.1771.2798.4267.4197.7489.4197z"/><path d="m19.1734 34.9676c-.1842 0-.3099-.0478-.3772-.1435-.0672-.0956-.1009-.2779-.1009-.547v-2.8152h.6905v2.8152c0 .1593.0213.2886.0638.3877.046.0956.1487.1434.308.1434h.0531v.1594z"/><path d="m15.7101 34.9676v-2.8152c0-.1593-.023-.2868-.0691-.3824-.0425-.0992-.1434-.1487-.3027-.1487h-.0531v-.1594h1.4606c.0957 0 .2054.0071.3294.0213.1239.0106.2496.0354.3771.0743.131.039.2514.0974.3612.1753.1097.0779.1983.1824.2656.3134.0672.1275.1009.2886.1009.4833 0 .1842-.0337.3382-.1009.4622-.0673.1203-.1541.2177-.2603.2921-.1027.0744-.2125.131-.3293.17-.1169.0389-.2284.0655-.3347.0796-.1027.0107-.1859.016-.2496.016h-.5046v1.4182zm.6905-1.6307h.3187c.1204 0 .2355-.023.3452-.069.1098-.0496.1983-.1346.2656-.255.0708-.1204.1062-.2904.1062-.5099 0-.2196-.0354-.3878-.1062-.5046-.0673-.1204-.154-.2036-.2602-.2497-.1027-.0495-.2107-.0743-.3241-.0743-.0424 0-.0849.0017-.1274.0053-.0425.0035-.0797.0088-.1116.0159l-.1062.016z"/><path d="m15.0971 35.2066c-.386 0-.6622-.0903-.8286-.2709-.1665-.1806-.2497-.471-.2497-.8711v-1.8803l-1.1632 2.7833h-.1753l-1.4235-2.8895v2.8895h-.2656v-3.5057h.648l1.2854 2.608 1.0889-2.608h.6958v2.6027c0 .3222.0266.5648.0797.7277.0567.1593.1593.2532.3081.2815z"/><path d="m10.4973 34.9888c-.1169 0-.2408-.0142-.3718-.0425-.1275-.0319-.25144-.0974-.37184-.1965-.11685-.0992-.21777-.2497-.30276-.4515l-.12216-.2974h-1.41289l-.43555.9667h-.2762l1.56692-3.5057h.23902l1.18976 2.8364c.0638.1558.1417.2797.2337.3718.0921.0921.1983.1452.3187.1594v.1328c-.0283.007-.069.0123-.1221.0159-.0496.0071-.0939.0106-.1328.0106zm-2.4699-1.227h1.20042l-.58428-1.3863z"/><path d="m3.91321 34.9676v-2.8152c0-.1593-.02302-.2868-.06905-.3824-.0425-.0992-.14342-.1487-.30276-.1487h-.05312v-.1594h.63739c.18768 0 .31339.0496.37712.1487.06728.0992.10092.2798.10092.5418v.8764h1.43413v-1.5669h.69051v2.8152c0 .1593.02125.2886.06374.3877.04603.0956.14872.1434.30807.1434h.05312v.1594h-.63739c-.18414 0-.30985-.0478-.37713-.1435-.06728-.0956-.10092-.2779-.10092-.547v-1.0092h-1.43413v1.6997z"/><path d="m1.75282 35.0736c-.37181 0-.68873-.0797-.95077-.239-.262038-.1594-.462108-.3754-.60021-.6481-.1345598-.2726-.20184-.5789-.20184-.9189 0-.2691.0424927-.5187.127478-.7489.088527-.2337.212464-.4373.371811-.6108.159348-.1735.345254-.3081.557721-.4037.21246-.0992.4444-.1487.69581-.1487.33286 0 .60021.0442.80205.1328.20539.0849.35765.1841.4568.2974.07082.0921.11154.2107.12217.3559.01062.1452.01593.2957.01593.4515h-.15935c-.06728-.3223-.19121-.5684-.37181-.7383-.17705-.1736-.41253-.2603-.70644-.2603-.216 0-.41253.0496-.58958.1487-.17706.0992-.3187.2709-.424931.5152-.102691.2408-.154037.5772-.154037 1.0092 0 .2019.021247.3966.063739.5843.042493.1877.109773.3559.201839.5046.09561.1487.21601.2656.36119.3506.14872.085.32932.1275.54178.1275.24433 0 .47096-.0638.67989-.1913.20892-.131.37712-.3204.5046-.5683l.1859.1434c-.16643.2939-.37004.5099-.61083.648s-.54709.2072-.91891.2072z"/><path d="m3.66602 9.15391c.41449-.43647.81301-.85796 1.21253-1.27745.19376-.20376.38952-.40651.58629-.60827.31861-.3256.44146-.70814.37654-1.16359-.09289-.6552-.1638-1.3144-.2437-1.97061-.01798-.14283-.03896-.28465-.05694-.42648-.02197-.17978.01798-.2457.19577-.27966.36256-.06892.72712-.12885 1.08968-.19277.47742-.0849.95484-.1668 1.43126-.25669.38254-.07191.6602-.29165.84798-.62824.38653-.69416.77106-1.389314 1.15757-2.083473.048-.085896.0989-.1697944.1558-.266677.063.0279661.1179.0509383.1708.0769068.7232.3525732 1.4463.7071432 2.1704 1.0567232.1228.05893.2527.10986.3855.14382.2557.06592.5034.01998.7401-.08889.7661-.351574 1.5322-.703148 2.2992-1.054722.065-.029964.1299-.0569312.2068-.09089.033.0559322.0649.105872.0919.158808.3825.721126.7631 1.443254 1.1486 2.163374.0649.12086.1378.24071.2257.34459.1848.22073.4365.3296.7142.38353.811.15781 1.622.31562 2.432.47443.0639.01198.1269.03196.1968.04894-.039.28565-.0749.55832-.1129.83099-.0919.65021-.1888 1.29943-.2747 1.95064-.0449.34158.054.64522.2887.89991.5423.58928 1.0867 1.17557 1.63 1.76386.0779.0849.1548.17179.2417.26867-.0419.04795-.0789.09389-.1198.13584-.5843.60327-1.1676 1.20657-1.7529 1.80777-.2487.2557-.3726.5584-.3486.9139.013.1928.044.3836.0669.5753.0739.6133.1469 1.2265.2208 1.8408.0149.1249.0269.2497.0419.3905-.1918.034-.3685.067-.5463.0969-.7062.1199-1.4123.2387-2.1175.3596-.3865.0659-.6632.2846-.8509.6212-.2827.5064-.5613 1.0138-.842 1.5202-.1338.2417-.2687.4824-.4035.7231-.019.033-.042.0629-.0709.1069-.0789-.033-.1558-.0599-.2278-.0949-.7191-.3496-1.4402-.6942-2.1543-1.0527-.3846-.1928-.7571-.1938-1.1417-.01-.7461.3565-1.4952.7061-2.2432 1.0587-.064.03-.1289.0579-.2028.0919-.029-.049-.0559-.0889-.0789-.1319-.40152-.755-.80203-1.5101-1.20255-2.2662-.17578-.3326-.44745-.5424-.81301-.6213-.25269-.0539-.50938-.0898-.76408-.1358-.61225-.1119-1.22451-.2247-1.83577-.3396-.05294-.01-.10288-.0329-.1678-.0539.01998-.1638.03596-.3216.05793-.4794.10388-.7431.21175-1.4852.31362-2.2283.05294-.3826-.04394-.7192-.30962-1.0078-.51238-.5563-1.02177-1.1157-1.53115-1.67498-.09289-.10188-.18178-.20675-.28266-.32161zm3.7115.06792c.003 3.31097 2.70768 5.93277 5.95278 5.91687 3.1951-.016 5.8879-2.6029 5.8869-5.93186 0-3.26704-2.6588-5.91383-5.9268-5.91183-3.2601.002-5.91887 2.66677-5.91388 5.92682z"/><path d="m24.457 23.4471c-.0899 0-.1508 0-.2107 0-1.2425 0-2.485.002-3.7275-.005-.3336-.002-.5623.1329-.7231.4245-.5264.9509-1.0628 1.8967-1.5951 2.8446-.051.0909-.1049.1787-.1698.2886-.041-.0659-.0739-.1138-.1029-.1638-1.2045-2.0895-2.4081-4.1789-3.6136-6.2674-.0599-.1049-.1219-.2127-.2038-.3006-.6122-.6532-1.4941-.3696-1.8247.1927-.2517.4275-.5004.858-.7471 1.2885-.6552 1.1446-1.3095 2.2892-1.96366 3.4348-.29265.5124-.58429 1.0258-.87794 1.5382-.03196.0559-.07091.1088-.11885.1817-.04695-.0779-.0839-.1368-.11886-.1967-.55033-.9509-1.10067-1.9007-1.648-2.8526-.11586-.2007-.26368-.3535-.5004-.3965-.07491-.014-.15381-.014-.23072-.014-1.2365 0-2.474 0-3.7105.002-.05793 0-.11686 0-.20375 0 .05293-.1039.08789-.1828.13084-.2577 1.2365-2.1913 2.473-4.3827 3.7095-6.573.04894-.0869.09489-.1748.14682-.2597.06992-.1138.15082-.1478.27967-.1238.4065.0749.81101.1558 1.21852.2237.19576.033.3266.1268.42049.3046.38653.7251.78405 1.4453 1.17358 2.1694.30363.5643.97686.785 1.56306.5254.7312-.3227 1.4473-.6782 2.1574-1.0428.1888-.0969.3706-.0869.5544.004.6821.3366 1.3653.6712 2.0455 1.0098.1798.0889.3625.1658.5633.1758.5413.0269.9528-.1938 1.2175-.6682.3756-.6742.7451-1.3534 1.1167-2.0305.0269-.048.0559-.0949.0829-.1429.0549-.0989.1398-.1528.2487-.1728.4714-.0869.9418-.1758 1.4133-.2616.1737-.032.2157-.006.3136.1677 1.0527 1.8578 2.1044 3.7155 3.1571 5.5733.2288.4035.4575.806.6862 1.2095.027.047.05.0949.0889.1708z"/><path d="m18.0503 9.22699c-.025 2.66981-2.1614 4.75121-4.7632 4.73521-2.6967-.0159-4.75025-2.2103-4.73427-4.78416.01598-2.57488 2.10547-4.71628 4.75427-4.70829 2.6348.00699 4.7302 2.11344 4.7432 4.75724zm-5.6661.69016c-.0959-.09688-.1658-.1678-.2347-.23771-.2218-.22373-.4385-.45146-.6662-.66919-.2188-.20775-.5314-.23072-.7791-.07092-.2407.15581-.3526.44946-.2557.72413.037.10487.1059.20774.1848.28865.4195.43149.844.85799 1.2715 1.28249.2876.2856.6552.2886.9398.0039 1.0478-1.0457 2.0925-2.09342 3.1362-3.14214.2627-.26468.2617-.66919.006-.91989-.2527-.2477-.6592-.23671-.9209.02597-.8509.85197-1.7009 1.70393-2.5509 2.5569-.0429.04295-.0779.09389-.1308.15881z"/></g></svg>

<svg width="27" height="36" viewBox="0 0 27 36" fill="none" xmlns="http://www.w3.org/2000/svg">
<path d="M26.7557 34.9835L24.5036 32.3383V34.9676H24.238V32.0993C24.238 31.9647 24.2044 31.8514 24.1371 31.7594C24.0733 31.6673 23.9476 31.6213 23.76 31.6213H23.7334V31.4619H24.1052C24.3071 31.4619 24.4699 31.4885 24.5939 31.5416C24.7214 31.5947 24.8258 31.6744 24.9073 31.7806L26.7344 33.9052V31.4619H27V34.9835H26.7557Z" fill="black"/>
<path d="M21.8065 35.0736C21.456 35.0736 21.1479 34.9921 20.8823 34.8292C20.6203 34.6628 20.4167 34.4397 20.2715 34.16C20.1263 33.8802 20.0537 33.5651 20.0537 33.2145C20.0537 32.864 20.1263 32.5488 20.2715 32.2691C20.4167 31.9893 20.6203 31.768 20.8823 31.6051C21.1479 31.4387 21.456 31.3555 21.8065 31.3555C22.1606 31.3555 22.4669 31.4387 22.7254 31.6051C22.9875 31.768 23.1911 31.9893 23.3363 32.2691C23.4815 32.5488 23.554 32.864 23.554 33.2145C23.554 33.5651 23.4815 33.8802 23.3363 34.16C23.1911 34.4397 22.9875 34.6628 22.7254 34.8292C22.4669 34.9921 22.1606 35.0736 21.8065 35.0736ZM21.8065 34.8346C22.1288 34.8346 22.3784 34.6947 22.5555 34.4149C22.7325 34.1317 22.821 33.7315 22.821 33.2145C22.821 32.6975 22.7325 32.2992 22.5555 32.0194C22.3784 31.7361 22.1288 31.5945 21.8065 31.5945C21.4843 31.5945 21.2347 31.7361 21.0576 32.0194C20.8841 32.2992 20.7973 32.6975 20.7973 33.2145C20.7973 33.7315 20.8841 34.1317 21.0576 34.4149C21.2347 34.6947 21.4843 34.8346 21.8065 34.8346Z" fill="black"/>
<path d="M19.1734 34.9676C18.9892 34.9676 18.8635 34.9198 18.7962 34.8241C18.729 34.7285 18.6953 34.5462 18.6953 34.2771V31.4619H19.3858V34.2771C19.3858 34.4364 19.4071 34.5657 19.4496 34.6648C19.4956 34.7604 19.5983 34.8082 19.7576 34.8082H19.8107V34.9676H19.1734Z" fill="black"/>
<path d="M15.7101 34.9676V32.1524C15.7101 31.9931 15.6871 31.8656 15.641 31.77C15.5985 31.6708 15.4976 31.6213 15.3383 31.6213H15.2852V31.4619H16.7458C16.8415 31.4619 16.9512 31.469 17.0752 31.4832C17.1991 31.4938 17.3248 31.5186 17.4523 31.5575C17.5833 31.5965 17.7037 31.6549 17.8135 31.7328C17.9232 31.8107 18.0118 31.9152 18.0791 32.0462C18.1463 32.1737 18.18 32.3348 18.18 32.5295C18.18 32.7137 18.1463 32.8677 18.0791 32.9917C18.0118 33.112 17.925 33.2094 17.8188 33.2838C17.7161 33.3582 17.6063 33.4148 17.4895 33.4538C17.3726 33.4927 17.2611 33.5193 17.1548 33.5334C17.0521 33.5441 16.9689 33.5494 16.9052 33.5494H16.4006V34.9676H15.7101ZM16.4006 33.3369H16.7193C16.8397 33.3369 16.9548 33.3139 17.0645 33.2679C17.1743 33.2183 17.2628 33.1333 17.3301 33.0129C17.4009 32.8925 17.4363 32.7225 17.4363 32.503C17.4363 32.2834 17.4009 32.1152 17.3301 31.9984C17.2628 31.878 17.1761 31.7948 17.0699 31.7487C16.9672 31.6992 16.8592 31.6744 16.7458 31.6744C16.7034 31.6744 16.6609 31.6761 16.6184 31.6797C16.5759 31.6832 16.5387 31.6885 16.5068 31.6956L16.4006 31.7116V33.3369Z" fill="black"/>
<path d="M15.0971 35.2066C14.7111 35.2066 14.4349 35.1163 14.2685 34.9357C14.102 34.7551 14.0188 34.4647 14.0188 34.0646V32.1843L12.8556 34.9676H12.6803L11.2568 32.0781V34.9676H10.9912V31.4619H11.6392L12.9246 34.0699L14.0135 31.4619H14.7093V34.0646C14.7093 34.3868 14.7359 34.6294 14.789 34.7923C14.8457 34.9516 14.9483 35.0455 15.0971 35.0738V35.2066Z" fill="black"/>
<path d="M10.4973 34.9888C10.3804 34.9888 10.2565 34.9746 10.1255 34.9463C9.998 34.9144 9.87406 34.8489 9.75366 34.7498C9.63681 34.6506 9.53589 34.5001 9.4509 34.2983L9.32874 34.0009H7.91585L7.4803 34.9676H7.2041L8.77102 31.4619H9.01004L10.1998 34.2983C10.2636 34.4541 10.3415 34.578 10.4335 34.6701C10.5256 34.7622 10.6318 34.8153 10.7522 34.8295V34.9623C10.7239 34.9693 10.6832 34.9746 10.6301 34.9782C10.5805 34.9853 10.5362 34.9888 10.4973 34.9888ZM8.0274 33.7618H9.22782L8.64354 32.3755L8.0274 33.7618Z" fill="black"/>
<path d="M3.91321 34.9676V32.1524C3.91321 31.9931 3.89019 31.8656 3.84416 31.77C3.80166 31.6708 3.70074 31.6213 3.5414 31.6213H3.48828V31.4619H4.12567C4.31335 31.4619 4.43906 31.5115 4.50279 31.6106C4.57007 31.7098 4.60371 31.8904 4.60371 32.1524V33.0288H6.03784V31.4619H6.72835V34.2771C6.72835 34.4364 6.7496 34.5657 6.79209 34.6648C6.83812 34.7604 6.94081 34.8082 7.10016 34.8082H7.15328V34.9676H6.51589C6.33175 34.9676 6.20604 34.9198 6.13876 34.8241C6.07148 34.7285 6.03784 34.5462 6.03784 34.2771V33.2679H4.60371V34.9676H3.91321Z" fill="black"/>
<path d="M1.75282 35.0736C1.38101 35.0736 1.06409 34.9939 0.80205 34.8346C0.540012 34.6752 0.339942 34.4592 0.20184 34.1865C0.0672802 33.9139 0 33.6076 0 33.2676C0 32.9985 0.0424927 32.7489 0.127478 32.5187C0.216005 32.285 0.339942 32.0814 0.499289 31.9079C0.658637 31.7344 0.844543 31.5998 1.05701 31.5042C1.26947 31.405 1.50141 31.3555 1.75282 31.3555C2.08568 31.3555 2.35303 31.3997 2.55487 31.4883C2.76026 31.5732 2.91252 31.6724 3.01167 31.7857C3.08249 31.8778 3.12321 31.9964 3.13384 32.1416C3.14446 32.2868 3.14977 32.4373 3.14977 32.5931H2.99042C2.92314 32.2708 2.79921 32.0247 2.61861 31.8548C2.44156 31.6812 2.20608 31.5945 1.91217 31.5945C1.69617 31.5945 1.49964 31.6441 1.32259 31.7432C1.14553 31.8424 1.00389 32.0141 0.897659 32.2584C0.794968 32.4992 0.743622 32.8356 0.743622 33.2676C0.743622 33.4695 0.764869 33.6642 0.807361 33.8519C0.849854 34.0396 0.917134 34.2078 1.0092 34.3565C1.10481 34.5052 1.22521 34.6221 1.37039 34.7071C1.51911 34.7921 1.69971 34.8346 1.91217 34.8346C2.1565 34.8346 2.38313 34.7708 2.59206 34.6433C2.80098 34.5123 2.96918 34.3229 3.09666 34.075L3.28256 34.2184C3.11613 34.5123 2.91252 34.7283 2.67173 34.8664C2.43094 35.0045 2.12464 35.0736 1.75282 35.0736Z" fill="black"/>
<path d="M3.66602 9.15391C4.08051 8.71744 4.47903 8.29595 4.87855 7.87646C5.07231 7.6727 5.26807 7.46995 5.46484 7.26819C5.78345 6.94259 5.9063 6.56005 5.84138 6.1046C5.74849 5.4494 5.67758 4.7902 5.59768 4.13399C5.5797 3.99116 5.55872 3.84934 5.54074 3.70751C5.51877 3.52773 5.55872 3.46181 5.73651 3.42785C6.09907 3.35893 6.46363 3.299 6.82619 3.23508C7.30361 3.15018 7.78103 3.06828 8.25745 2.97839C8.63999 2.90648 8.91765 2.68674 9.10543 2.35015C9.49196 1.65599 9.87649 0.960836 10.263 0.266677C10.311 0.180781 10.3619 0.0968826 10.4188 0C10.4818 0.0279661 10.5367 0.0509383 10.5896 0.0769068C11.3128 0.42948 12.0359 0.78405 12.76 1.13363C12.8828 1.19256 13.0127 1.24349 13.1455 1.27745C13.4012 1.34337 13.6489 1.29743 13.8856 1.18856C14.6517 0.836986 15.4178 0.485412 16.1848 0.133838C16.2498 0.103874 16.3147 0.0769068 16.3916 0.042948C16.4246 0.0988802 16.4565 0.14882 16.4835 0.201756C16.866 0.922882 17.2466 1.64501 17.6321 2.36513C17.697 2.48599 17.7699 2.60584 17.8578 2.70972C18.0426 2.93045 18.2943 3.03932 18.572 3.09325C19.383 3.25106 20.194 3.40887 21.004 3.56768C21.0679 3.57966 21.1309 3.59964 21.2008 3.61662C21.1618 3.90227 21.1259 4.17494 21.0879 4.44761C20.996 5.09782 20.8991 5.74704 20.8132 6.39825C20.7683 6.73983 20.8672 7.04347 21.1019 7.29816C21.6442 7.88744 22.1886 8.47373 22.7319 9.06202C22.8098 9.14692 22.8867 9.23381 22.9736 9.33069C22.9317 9.37864 22.8947 9.42458 22.8538 9.46653C22.2695 10.0698 21.6862 10.6731 21.1009 11.2743C20.8522 11.53 20.7283 11.8327 20.7523 12.1882C20.7653 12.381 20.7963 12.5718 20.8192 12.7635C20.8931 13.3768 20.9661 13.99 21.04 14.6043C21.0549 14.7292 21.0669 14.854 21.0819 14.9948C20.8901 15.0288 20.7134 15.0618 20.5356 15.0917C19.8294 15.2116 19.1233 15.3304 18.4181 15.4513C18.0316 15.5172 17.7549 15.7359 17.5672 16.0725C17.2845 16.5789 17.0059 17.0863 16.7252 17.5927C16.5914 17.8344 16.4565 18.0751 16.3217 18.3158C16.3027 18.3488 16.2797 18.3787 16.2508 18.4227C16.1719 18.3897 16.095 18.3628 16.023 18.3278C15.3039 17.9782 14.5828 17.6336 13.8687 17.2751C13.4841 17.0823 13.1116 17.0813 12.727 17.2651C11.9809 17.6216 11.2318 17.9712 10.4838 18.3238C10.4198 18.3538 10.3549 18.3817 10.281 18.4157C10.252 18.3667 10.2251 18.3268 10.2021 18.2838C9.80058 17.5288 9.40007 16.7737 8.99955 16.0176C8.82377 15.685 8.5521 15.4752 8.18654 15.3963C7.93385 15.3424 7.67716 15.3065 7.42246 15.2605C6.81021 15.1486 6.19795 15.0358 5.58669 14.9209C5.53375 14.9109 5.48381 14.888 5.41889 14.867C5.43887 14.7032 5.45485 14.5454 5.47682 14.3876C5.5807 13.6445 5.68857 12.9024 5.79044 12.1593C5.84338 11.7767 5.7465 11.4401 5.48082 11.1515C4.96844 10.5952 4.45905 10.0358 3.94967 9.47652C3.85678 9.37464 3.76789 9.26977 3.66701 9.15491L3.66602 9.15391ZM7.37752 9.22183C7.38052 12.5328 10.0852 15.1546 13.3303 15.1387C16.5254 15.1227 19.2182 12.5358 19.2172 9.20684C19.2172 5.9398 16.5584 3.29301 13.2904 3.29501C10.0303 3.29701 7.37153 5.96178 7.37652 9.22183H7.37752Z" fill="black"/>
<path d="M24.457 23.4471C24.3671 23.4471 24.3062 23.4471 24.2463 23.4471C23.0038 23.4471 21.7613 23.4491 20.5188 23.4421C20.1852 23.4401 19.9565 23.575 19.7957 23.8666C19.2693 24.8175 18.7329 25.7633 18.2006 26.7112C18.1496 26.8021 18.0957 26.8899 18.0308 26.9998C17.9898 26.9339 17.9569 26.886 17.9279 26.836C16.7234 24.7465 15.5198 22.6571 14.3143 20.5686C14.2544 20.4637 14.1924 20.3559 14.1105 20.268C13.4983 19.6148 12.6164 19.8984 12.2858 20.4607C12.0341 20.8882 11.7854 21.3187 11.5387 21.7492C10.8835 22.8938 10.2292 24.0384 9.57504 25.184C9.28239 25.6964 8.99075 26.2098 8.6971 26.7222C8.66514 26.7781 8.62619 26.831 8.57825 26.9039C8.5313 26.826 8.49435 26.7671 8.45939 26.7072C7.90906 25.7563 7.35872 24.8065 6.81139 23.8546C6.69553 23.6539 6.54771 23.5011 6.31099 23.4581C6.23608 23.4441 6.15718 23.4441 6.08027 23.4441C4.84377 23.4441 3.60627 23.4441 2.36977 23.4461C2.31184 23.4461 2.25291 23.4461 2.16602 23.4461C2.21895 23.3422 2.25391 23.2633 2.29686 23.1884C3.53336 20.9971 4.76986 18.8057 6.00636 16.6154C6.0553 16.5285 6.10125 16.4406 6.15318 16.3557C6.2231 16.2419 6.304 16.2079 6.43285 16.2319C6.83935 16.3068 7.24386 16.3877 7.65137 16.4556C7.84713 16.4886 7.97797 16.5824 8.07186 16.7602C8.45839 17.4853 8.85591 18.2055 9.24544 18.9296C9.54907 19.4939 10.2223 19.7146 10.8085 19.455C11.5397 19.1323 12.2558 18.7768 12.9659 18.4122C13.1547 18.3153 13.3365 18.3253 13.5203 18.4162C14.2024 18.7528 14.8856 19.0874 15.5658 19.426C15.7456 19.5149 15.9283 19.5918 16.1291 19.6018C16.6704 19.6287 17.0819 19.408 17.3466 18.9336C17.7222 18.2594 18.0917 17.5802 18.4633 16.9031C18.4902 16.8551 18.5192 16.8082 18.5462 16.7602C18.6011 16.6613 18.686 16.6074 18.7949 16.5874C19.2663 16.5005 19.7367 16.4116 20.2082 16.3258C20.3819 16.2938 20.4239 16.3198 20.5218 16.4935C21.5745 18.3513 22.6262 20.209 23.6789 22.0668C23.9077 22.4703 24.1364 22.8728 24.3651 23.2763C24.3921 23.3233 24.4151 23.3712 24.454 23.4471H24.457Z" fill="black"/>
<path d="M18.0503 9.22699C18.0253 11.8968 15.8889 13.9782 13.2871 13.9622C10.5904 13.9463 8.53685 11.7519 8.55283 9.17804C8.56881 6.60316 10.6583 4.46176 13.3071 4.46975C15.9419 4.47674 18.0373 6.58319 18.0503 9.22699ZM12.3842 9.91715C12.2883 9.82027 12.2184 9.74935 12.1495 9.67944C11.9277 9.45571 11.711 9.22798 11.4833 9.01025C11.2645 8.8025 10.9519 8.77953 10.7042 8.93933C10.4635 9.09514 10.3516 9.38879 10.4485 9.66346C10.4855 9.76833 10.5544 9.8712 10.6333 9.95211C11.0528 10.3836 11.4773 10.8101 11.9048 11.2346C12.1924 11.5202 12.56 11.5232 12.8446 11.2385C13.8924 10.1928 14.9371 9.14508 15.9808 8.09636C16.2435 7.83168 16.2425 7.42717 15.9868 7.17647C15.7341 6.92877 15.3276 6.93976 15.0659 7.20244C14.215 8.05441 13.365 8.90637 12.515 9.75934C12.4721 9.80229 12.4371 9.85323 12.3842 9.91815V9.91715Z" fill="black"/>
</svg>
